!!!OTL-incipit: ES WAR EINE SCHOENE JUEDIN
!!!ARE: Europa, Mitteleuropa, Deutschland, Schwaben, Hartgebirge
!!!SCT: Z0070
!!!TXL: @@DE
!!!YEM: Copyright 1995, estate of Helmut Schaffrath.
**kern	**text
*ICvox	*
*M4/4	*
*met(c)	*
*k[f#c#]	*
*D:	*
!LO:TX:a:t=Schwäbisch.	!
!LO:TX:a:t=Hartgebirge.	!
{4d	Es
=1	=1
4d	war
8f#L	ei-
8gJ	-ne
2a	ſchö-
=2	=2
2f#	-ne
(4f#	Jü-
4e)	.
=3	=3
2d}	-din,
{2a	ein
=4	=4
4a	wun-
4dd	-der-
4dd	-ſchö-
4cc#	-nes
=5	=5
4cc#	Weib,
4b/	.
2a}	.
=6	=6
{2a	ſie
4a	hatt'
8bL	ei-
8cc#J	-ne
=7	=7
4cc#	ſchö-
4dd	-ne
2b/	Toch-
=8	=8
2b/}	-ter,
{2b/	ihr
=9	=9
4cc#	Haar
4dd	war
4a	ſchön
4g	ge-
=10	=10
2f#	-floch-
2a}	-ten,
=11	=11
{(4b/	ʒum
4a)	.
4g	Tanʒ
4f#	war
=12	=12
2g	ſie
2a	be-
=13	=13
2.f#}	-reit.
==	==
!!!AGN: Sagen - Lied, Romanze, Tod
!!!ONB: ESAC (Essen Associative Code) Database: ZUCCAL
!!!AMT: simple quadruple
!!!AIN: vox
!!!EED: Helmut Schaffrath
!!!EEV: 1.0
!!!GTL: I. Ernste Romanzen und Sagen.
!!!URL-scan: https://www.digitale-sammlungen.de/de/view/bsb11160571?page=144
!!!ENC: Anna Maria Matuszewska
!!!EEV: 2025/01/24
*-	*-
